!!!COM: Anon.
!!!OTL: Song Concerning the Twine
!!!ODT: <1918//
!!!MPN: Marolipa [Buffalo Bull Head, Ben Benson]
!!!MLC: Fort Berthold Reservation, North Dakota, United States of America
!! Song was recorded during either the summer of 1912, 1915, or 1918.
!!!AGN: monody
!!!AST: Songs Connected With Eagle Catching
!!!AMT: irregular
!!!RWG: Transcribed pitches, durations, and meters are only approximate.
!! Drum not recorded.
**kern
*ICvox
*Imale
*clefF4
*k[b-e-a-d-g-]
*M2/4
*MM66
8e-
=1
8.a-
16e-
8.e-
16c
=2
8.e-
16e-
8.e-
16a-
=3
8a-
16e-
32f
32e-
8.d-
16a-
=4
8a-
16e-
32f
32e-
8.d-
16d-
=5
8.d-
16B-
8.A-
16e-
=6
(12f
12d-
12B-)
8.A-
16A-
=7
(12A-
12A-
12A-)
12r
12A-
12A-
*M3/4
=8
8.d-
16d-
8.d-
16B-
8.A-
16e-
*M2/4
=9
(12f
12d-
24d-
24B-)
(12A-
12Gn
12A-)
=10
8.A-
16Gn
4A-
=11
4A-
4A-
=12
2.A-
==
*-
!!!CNT: Mandan
!!!TXO: Mandan
!!!OCY: United States
!!!OCL: Frances Densmore
!!!YOR: Frances Densmore, "Mandan and Hidatsa Music",
!!!YOR: Bulletin 80, page 80, No. 30
!!!PPR: Smithsonian Institution, Bureau of American Ethnology
!!!PPR: Government Printing Office
!!!PDT: 1923
!!!PPP: Washington, DC, United States of America
!!!YEC: Electronic Copyright 2000 David Huron
!!!YER: August 2000
!!!YEN: United States of America
!!!ENC: David Huron
!!!RDT: August 16, 2000
!!!EEV: Release 1.0
!!!AIN: tom, vox
